X: 62
T: Martin Wynne's Reel no. 2
R: reel
Z: 2012 John Chambers <jc@trillian.mit.edu>
B: "100 Essential Irish Session Tunes" 1995 Dave Mallinson, ed.
M: 4/4
L: 1/8
K: Bm
DE |:\
"Bm"FBAF "A"E2FE | "G"DB,~B,2 DB,~A,2 | "Em"B,EDE "D"FEDE |1,3 "Bm"FABc "G"dcBA :|2,4 "Bm"FBBA B2 :|
|: AG |\
"D"FBAF A2dA | "A"((3Bcd) eg "Bm"fdde | "D"f2af "A"e2fe | "G"dBAd "Bm"B2AG |
"D"FBAF A2dA | "A"((3Bcd) eg "D"fddf | "Bm"bfaf "A"egfe | "G"dBAd "Bm"B2 :|

%%sep 2 1 500
%%sep 1 1 500

